Icons/Line/si_Stop_circle.svg

<svg width="24" height="24" viewBox="0 0 24 24" fill="none" xmlns="http://www.w3.org/2000/svg">
<path d="M14.2 9H9.8C9.35817 9 9 9.35817 9 9.8V14.2C9 14.6418 9.35817 15 9.8 15H14.2C14.6418 15 15 14.6418 15 14.2V9.8C15 9.35817 14.6418 9 14.2 9Z" stroke="black" stroke-width="1.5" stroke-miterlimit="10"/>
<path d="M12 22C17.5228 22 22 17.5228 22 12C22 6.47715 17.5228 2 12 2C6.47715 2 2 6.47715 2 12C2 17.5228 6.47715 22 12 22Z" stroke="black" stroke-width="1.5" stroke-miterlimit="10"/>
</svg>

<svg width="24" height="24" fill="none" xmlns="http://www.w3.org/2000/svg"><path d="M14.2 9H9.8a.8.8 0 0 0-.8.8v4.4a.8.8 0 0 0 .8.8h4.4a.8.8 0 0 0 .8-.8V9.8a.8.8 0 0 0-.8-.8Z" stroke="#000" stroke-width="1.5" stroke-miterlimit="10"/><path d="M12 22c5.523 0 10-4.477 10-10S17.523 2 12 2 2 6.477 2 12s4.477 10 10 10Z" stroke="#000" stroke-width="1.5" stroke-miterlimit="10"/></svg>
